public/assets/twitter.svg

<svg width="16" height="16" viewBox="0 0 16 16" fill="none" xmlns="http://www.w3.org/2000/svg">
<path d="M12.4848 0.769531H14.7935L9.74876 6.89553L15.6838 15.2305H11.0372L7.39771 10.1745L3.233 15.2305H0.922412L6.31818 8.67753L0.625 0.769531H5.39018L8.67959 5.39153L12.4848 0.769531ZM11.6754 13.7625H12.9535L4.69465 2.16153H3.32241L11.6754 13.7645V13.7625Z" fill="#272C30"/>
</svg>

<svg xmlns="http://www.w3.org/2000/svg" width="16" height="16" fill="none" xmlns:v="https://vecta.io/nano"><path d="M12.485.77h2.309L9.749 6.896l5.935 8.335h-4.647l-3.639-5.056-4.165 5.056H.922l5.396-6.553L.625.77H5.39L8.68 5.392 12.485.77zm-.809 12.993h1.278L4.695 2.162H3.322l8.353 11.603v-.002z" fill="#272c30"/></svg>
